**harmony	**harte	**kern	**silbe	**kern.1	**silbe.1	**kern.2	**silbe.2	**rhyme	**timestamp	**phrase
*M4/4	*M4/4	*ICvox	*	*ICvox	*	*ICvox	*	*	*	*
*	*	*VRlead	*	*VRharmonize	*	*VRharmonize	*	*	*	*
*	*	*Hstimme	*	*Nstimme	*	*Nstimme	*	*	*	*
*F:	*F:	*F:	*	*F:	*	*F:	*	*	*	*
*	*	*M4/4	*	*M4/4	*	*M4/4	*	*	*	*
*	*	*clefG2	*	*clefG2	*	*clefG2	*	*	*	*
1r;	1r	r;	.	r;	.	r;	.	.	0	.
=1	=1	=1	=1	=1	=1	=1	=1	=1	=1	=1
*>Letter>A	*>Letter>A	*>Letter>A	*>Letter>A	*>Letter>A	*>Letter>A	*>Letter>A	*>Letter>A	*>Letter>A	*>Letter>A	*>Letter>A
*>Label>Intro	*>Label>Intro	*>Label>Intro	*>Label>Intro	*>Label>Intro	*>Label>Intro	*>Label>Intro	*>Label>Intro	*>Label>Intro	*>Label>Intro	*>Label>Intro
1N	N	1r	.	1r	.	1r	.	.	0.395	newline
=2	=2	=2	=2	=2	=2	=2	=2	=2	=2	=2
1FM	F:maj	1r	.	1r	.	1r	.	.	2.835	.
=3	=3	=3	=3	=3	=3	=3	=3	=3	=3	=3
4.FM	F:maj	1r	.	1r	.	1r	.	.	5.275	newline
2CM	C:maj/4	.	.	.	.	.	.	.	6.508	.
8B-M	B-:maj/5	.	.	.	.	.	.	.	.	.
=4	=4	=4	=4	=4	=4	=4	=4	=4	=4	=4
2.B-M	B-:maj/5	1r	.	1r	.	1r	.	.	7.741	.
4CM	C:maj/4	.	.	.	.	.	.	.	9.591	.
=5	=5	=5	=5	=5	=5	=5	=5	=5	=5	=5
4.FM	F:maj	1r	.	1r	.	1r	.	.	10.208	.
2CM	C:maj/4	.	.	.	.	.	.	.	11.441	.
8B-M	B-:maj/5	.	.	.	.	.	.	.	.	.
=6	=6	=6	=6	=6	=6	=6	=6	=6	=6	=6
1B-M	B-:maj/5	1r	.	1r	.	1r	.	.	12.674	.
=7	=7	=7	=7	=7	=7	=7	=7	=7	=7	=7
*>Letter>B	*>Letter>B	*>Letter>B	*>Letter>B	*>Letter>B	*>Letter>B	*>Letter>B	*>Letter>B	*>Letter>B	*>Letter>B	*>Letter>B
*>Label>Verse	*>Label>Verse	*>Label>Verse	*>Label>Verse	*>Label>Verse	*>Label>Verse	*>Label>Verse	*>Label>Verse	*>Label>Verse	*>Label>Verse	*>Label>Verse
.	.	8cq	_	.	.	.	.	.	.	.
4.FM	F:maj	8d	_	1r	.	1r	.	.	15.14	newline
.	.	8f	know	.	.	.	.	.	.	.
.	.	8f	this	.	.	.	.	.	.	.
2CM	C:maj/4	8d	pain	.	.	.	.	A	.	.
.	.	8c	.	.	.	.	.	.	.	.
.	.	8r	.	.	.	.	.	.	.	.
.	.	4r	.	.	.	.	.	.	.	.
8B-M	B-:maj/5	.	.	.	.	.	.	.	.	.
=8	=8	=8	=8	=8	=8	=8	=8	=8	=8	=8
2.B-M	B-:maj/5	2r	.	2r	.	1r	.	.	17.604	.
.	.	8r	.	8r	.	.	.	.	.	.
.	.	8cc	why	8f 8a	why	.	.	.	.	.
4CM	C:maj/4	8cc	do	8f 8a	do	.	.	.	.	.
.	.	8cc	you	8f 8a	you	.	.	.	.	.
=9	=9	=9	=9	=9	=9	=9	=9	=9	=9	=9
8%5Dm	D:min	8cc	lock	8f 8a	lock	1r	.	.	20.068	.
.	.	8a	your-	8d 8f	your-	.	.	.	.	.
.	.	8a	-self	8d 8f	-self	.	.	.	.	.
.	.	8a	up	8d 8f	up	.	.	.	.	.
.	.	8f	in	8A 8c	in	.	.	.	.	.
4FM	F:maj/3	4f	these	4A 4c	these	.	.	.	21.916	.
8B-M	B-:maj	[8f	chains	[8B- [8d	chains	.	.	A	.	.
=10	=10	=10	=10	=10	=10	=10	=10	=10	=10	=10
2B-M	B-:maj	8f]	_	8B-] 8d]	_	1r	.	.	22.532	.
.	.	8r	.	8r	.	.	.	.	.	.
.	.	4r	.	4r	.	.	.	.	.	.
2CM	C:sus4	2r	.	2r	.	.	.	.	23.764	.
=11	=11	=11	=11	=11	=11	=11	=11	=11	=11	=11
.	.	8cq	_	.	.	.	.	.	.	.
4.FM	F:maj	8d	_	1r	.	1r	.	.	24.996	newline
.	.	8f	one	.	.	.	.	.	.	.
.	.	8f	can	.	.	.	.	.	.	.
.	.	8cq	_	.	.	.	.	.	.	.
2CM	C:maj/4	[8d	change	.	.	.	.	A	26.225	.
.	.	16d]	_	.	.	.	.	.	.	.
.	.	16f	your	.	.	.	.	.	.	.
.	.	8f	life	.	.	.	.	.	.	.
.	.	8d	ex	.	.	.	.	.	.	.
.	.	8cq	_	.	.	.	.	.	.	.
8B-M	B-:maj/5	[8d	cept	.	.	.	.	.	.	.
=12	=12	=12	=12	=12	=12	=12	=12	=12	=12	=12
2.B-M	B-:maj/5	16d]	_	1r	.	1r	.	.	27.453	.
.	.	16c	for	.	.	.	.	.	.	.
.	.	8c	you.	.	.	.	.	.	.	.
.	.	4r	.	.	.	.	.	.	.	.
.	.	4r	.	.	.	.	.	.	.	.
4CM	C:maj/4	8r	.	.	.	.	.	.	29.296	.
.	.	8c	Don't	.	.	.	.	.	.	.
=13	=13	=13	=13	=13	=13	=13	=13	=13	=13	=13
4.FM	F:maj	8a	e-	1r	.	1r	.	.	29.911	.
.	.	8a	-ver	.	.	.	.	.	.	.
.	.	8a	let	.	.	.	.	.	.	.
2CM	C:maj/4	8a	a-	.	.	.	.	.	31.139	.
.	.	8a	-ny-	.	.	.	.	.	.	.
.	.	8a	-one	.	.	.	.	.	.	.
.	.	8a	step	.	.	.	.	.	.	.
8B-M	B-:maj/5	8a	all	.	.	.	.	.	.	.
=14	=14	=14	=14	=14	=14	=14	=14	=14	=14	=14
2.B-M	B-:maj/5	8cc	o-	1r	.	1r	.	.	32.368	.
.	.	16f	-ver	.	.	.	.	.	.	.
.	.	[16f	you	.	.	.	.	.	.	.
.	.	8f]	_	.	.	.	.	.	.	.
.	.	8cq	_	.	.	.	.	.	.	.
.	.	8d	_	.	.	.	.	.	.	.
.	.	4r	.	.	.	.	.	.	.	.
4CM	C:maj/4	8r	.	.	.	.	.	.	34.211	.
.	.	8c	Just	.	.	.	.	.	.	.
=15	=15	=15	=15	=15	=15	=15	=15	=15	=15	=15
4.FM	F:maj	8a	o-	1r	.	1r	.	.	34.825	newline
.	.	8c	-pen	.	.	.	.	.	.	.
.	.	8c	your	.	.	.	.	.	.	.
2CM	C:maj/4	8g	heart	.	.	.	.	.	36.043	.
.	.	8r	.	.	.	.	.	.	.	.
.	.	8g	and	.	.	.	.	.	.	.
.	.	8a	your	.	.	.	.	.	.	.
.	.	8fq	_	.	.	.	.	.	.	.
8B-M	B-:maj/5	8g	mind	.	.	.	.	B	.	.
=16	=16	=16	=16	=16	=16	=16	=16	=16	=16	=16
*	*	*	*	*clefF4	*	*	*	*	*	*
2.B-M	B-:maj/5	8f	_	1r	.	1r	.	.	37.26	.
.	.	8d	_	.	.	.	.	.	.	.
.	.	4r	.	.	.	.	.	.	.	.
.	.	8r	.	.	.	.	.	.	.	.
.	.	[8f	Mmm	.	.	.	.	.	.	.
4CM	C:maj/4	16f]	_	.	.	.	.	.	39.087	.
.	.	8c	_	.	.	.	.	.	.	.
.	.	16r	.	.	.	.	.	.	.	.
=17	=17	=17	=17	=17	=17	=17	=17	=17	=17	=17
*	*	*clefF4	*	*	*	*	*	*	*	*
8%5Dm	D:min	8r	.	8r	.	1r	.	.	39.696	.
.	.	16d 16f	Is	16A	Is	.	.	.	.	.
.	.	16d 16f	it	16A	it	.	.	.	.	.
.	.	16f 16a	real-	16c	real-	.	.	.	.	.
.	.	16d 16f	-ly	16A	-ly	.	.	.	.	.
.	.	8f 8a	fair	8c	fair	.	.	.	.	.
.	.	8cq 8fq	_	.	.	.	.	.	.	.
.	.	8d 8g	_	8B-	_	.	.	.	.	.
4FM	F:maj/3	8c 8f	_	8G	_	.	.	.	41.522	.
.	.	8A	to	8r	.	.	.	.	.	.
8B-M	B-:maj	8f 8b-	feel	8D	feel	.	.	.	.	.
=18	=18	=18	=18	=18	=18	=18	=18	=18	=18	=18
1B-M	B-:maj	2r	.	2r	.	1r	.	.	42.131	.
.	.	8d 8g	this	8B-	this	.	.	.	.	.
.	.	8c 8f	way	8A	way	.	.	.	.	.
.	.	8A 8~d	in	8F	in	.	.	.	.	.
.	.	8Aq	_	8Cq	_	.	.	.	.	.
.	.	8B- 8d	side	8D	side	.	.	B	.	.
=19	=19	=19	=19	=19	=19	=19	=19	=19	=19	=19
1CM	C:maj	4c 4e	_	4G	_	1r	.	.	44.566	.
.	.	4r	.	4r	.	.	.	.	.	.
.	.	8r	.	2r	.	.	.	.	.	.
.	.	8g	Oh	.	.	.	.	.	.	.
.	.	8f	_	.	.	.	.	.	.	.
.	.	8d	_	.	.	.	.	.	.	.
=20	=20	=20	=20	=20	=20	=20	=20	=20	=20	=20
*>Letter>C	*>Letter>C	*>Letter>C	*>Letter>C	*>Letter>C	*>Letter>C	*>Letter>C	*>Letter>C	*>Letter>C	*>Letter>C	*>Letter>C
*>Label>Chorus	*>Label>Chorus	*>Label>Chorus	*>Label>Chorus	*>Label>Chorus	*>Label>Chorus	*>Label>Chorus	*>Label>Chorus	*>Label>Chorus	*>Label>Chorus	*>Label>Chorus
4.FM	F:maj	8r	.	8r	.	1r	.	.	47.002	newline
.	.	8d	Some	8A	Some	.	.	.	.	.
.	.	8f	day	8c	day	.	.	.	.	.
8%5B-M	B-:maj/5	8d	some-	8B-	some-	.	.	.	48.238	.
.	.	16f	-bo-	16c	-bo-	.	.	.	.	.
.	.	16f	-dy's	16c	-dy's	.	.	.	.	.
.	.	16d	gon-	16B-	gon-	.	.	.	.	.
.	.	16d	-na	16B-	-na	.	.	.	.	.
.	.	16f	make	16c	make	.	.	.	.	.
.	.	16f	you	16c	you	.	.	.	.	.
.	.	16f	wan-	16c	wan-	.	.	.	.	.
.	.	16d	-na	16A	-na	.	.	.	.	.
=21	=21	=21	=21	=21	=21	=21	=21	=21	=21	=21
4.CM	C:maj/4	16f	turn	16c	turn	1r	.	.	49.475	.
.	.	16f	a-	16c	a-	.	.	.	.	.
.	.	16f	-round	16c	-round	.	.	C	.	.
.	.	16d	and	16A	and	.	.	.	.	.
.	.	8f	say	8c	say	.	.	A	.	.
8%5FM	F:maj	16d	good-	16A	good-	.	.	.	50.712	.
.	.	[16a [16cc	-bye	[16f	-bye	.	.	B	.	.
.	.	8a] 8cc]	_	8f]	_	.	.	.	.	.
.	.	8gq 8b-q	_	8eq	_	.	.	.	.	.
.	.	8a 8cc	_	8f	_	.	.	.	.	.
.	.	4r	.	4r	.	.	.	.	.	.
=22	=22	=22	=22	=22	=22	=22	=22	=22	=22	=22
*	*	*	*	*clefG2	*	*	*	*	*	*
4.FM	F:maj	8r	.	8r	.	1r	.	.	51.949	.
.	.	8cc 8ff	'Till	8a	'Till	.	.	.	.	.
.	.	8cc 8ff	then,	8a	then,	.	.	.	.	.
8%5B-M	B-:maj/5	8f 8a	ba-	16c	ba-	.	.	.	53.186	.
.	.	.	.	16d	_	.	.	.	.	.
*	*	*	*	*clefF4	*	*	*	*	*	*
.	.	8f 8b-	-by,	8d	-by,	.	.	.	.	.
.	.	16c	are	16F	are	.	.	.	.	.
.	.	16c	you	16G	you	.	.	.	.	.
.	.	16c	gon-	16A	gon-	.	.	.	.	.
.	.	16c	-na	16A	-na	.	.	.	.	.
.	.	16c	let	16A	let	.	.	.	.	.
.	.	16A	'em	16F	'em	.	.	.	.	.
=23	=23	=23	=23	=23	=23	=23	=23	=23	=23	=23
4.CM	C:maj/4	16d	hold	16A	hold	1r	.	.	54.423	.
.	.	16A	you	16A	you	.	.	.	.	.
.	.	16c	down	16A	down	.	.	C	.	.
.	.	16A	and	16F	and	.	.	.	.	.
.	.	8c	make	8A	make	.	.	A	.	.
8%5FM	F:maj	16A	you	16F	you	.	.	.	55.66	.
.	.	16c	cry	16A	cry	.	.	B	.	.
.	.	8A	_	8F	_	.	.	.	.	.
.	.	8r	.	8r	.	.	.	.	.	.
.	.	16c	Don't	4r	.	.	.	.	.	.
.	.	16d	you	.	.	.	.	.	.	.
.	.	8f	know	.	.	.	.	.	.	.
=24	=24	=24	=24	=24	=24	=24	=24	=24	=24	=24
4.FM	F:maj	8r	.	8r	.	1r	.	.	56.897	newline
.	.	16f 16a	don't	16c	don't	.	.	.	.	.
.	.	16g 16b-	you	16d	you	.	.	.	.	.
.	.	16g 16b-	know	16d	know	.	.	.	.	.
.	.	16a 16cc	_	16f	_	.	.	.	.	.
8%5B-M	B-:maj/5	8r	.	8r	.	.	.	.	58.115	.
.	.	16f 16a	things	16c	things	.	.	.	.	.
.	.	16g 16b-	'll	16d	'll	.	.	.	.	.
.	.	16g 16b-	change	16d	change	.	.	A	.	.
.	.	16a 16cc	_	16f	_	.	.	.	.	.
.	.	4r	.	4r	.	.	.	.	.	.
=25	=25	=25	=25	=25	=25	=25	=25	=25	=25	=25
4.CM	C:maj/4	16f 16a	things	16c	things	1r	.	.	59.333	.
.	.	16g 16b-	'll	16d	'll	.	.	.	.	.
.	.	16a 16cc	go	16f	go	.	.	.	.	.
.	.	16a 16cc	y-	16f	y-	.	.	.	.	.
.	.	8a 8cc	-your	8f	-your	.	.	.	.	.
8%5FM	F:maj	8a 8cc	way	8f	way	.	.	A	60.551	.
.	.	8r	.	2r	.	.	.	.	.	.
.	.	16f	Can	.	.	.	.	.	.	.
.	.	16f	you	.	.	.	.	.	.	.
.	.	8b-q	_	.	.	.	.	.	.	.
.	.	[4cc	hold	.	.	.	.	.	.	.
=26	=26	=26	=26	=26	=26	=26	=26	=26	=26	=26
4.B-M	B-:maj	8cc]	_	1r	.	1r	.	.	61.769	.
.	.	8f	_	.	.	.	.	.	.	.
.	.	8f	_	.	.	.	.	.	.	.
2FM	F:maj/3	8f	on	.	.	.	.	.	62.987	.
.	.	8c	_	.	.	.	.	.	.	.
.	.	8r	.	.	.	.	.	.	.	.
.	.	8f	for	.	.	.	.	.	.	.
8Gmm	G:min7	8f	one	.	.	.	.	.	.	.
=27	=27	=27	=27	=27	=27	=27	=27	=27	=27	=27
*	*	*	*	*clefG2	*	*	*	*	*	*
2Gmm	G:min7	8f	more	2r	.	1r	.	.	64.206	.
.	.	8cq	_	.	.	.	.	.	.	.
.	.	8d	day	.	.	.	.	A	.	.
.	.	4c	_	.	.	.	.	.	.	.
2CM	C:sus4	8r	.	8r	.	.	.	.	65.424	.
.	.	16c	Can	16c	Can	.	.	.	.	.
.	.	16c	you	16c	you	.	.	.	.	.
.	.	[4g	hold	[4b-	hold	.	.	.	.	.
=28	=28	=28	=28	=28	=28	=28	=28	=28	=28	=28
4.B-M	B-:maj	8g]	_	8b-]	_	1r	.	.	66.642	newline
.	.	24g	_	24b-	_	.	.	.	.	.
.	.	24a-	_	24cc	_	.	.	.	.	.
.	.	[24g	_	24b-	_	.	.	.	.	.
.	.	8g]	_	8a	_	.	.	.	.	.
8%5FM	F:maj/3	8f	on	8a	on	.	.	.	67.871	.
.	.	8cq	_	8fq	_	.	.	.	.	.
.	.	8d	_	8g	_	.	.	.	.	.
.	.	8c	_	8f	_	.	.	.	.	.
.	.	8c	for	8f	for	.	.	.	.	.
.	.	8c	one	8f	one	.	.	.	.	.
=29	=29	=29	=29	=29	=29	=29	=29	=29	=29	=29
1Gmm	G:min7	8f	more	8b-	more	1r	.	.	69.101	.
.	.	4f	day	4b-	day	.	.	A	.	.
.	.	8r	.	8r	.	.	.	.	.	.
.	.	8f	Things	2r	.	.	.	.	.	.
.	.	16d	'll	.	.	.	.	.	.	.
.	.	[16f	go	.	.	.	.	.	.	.
.	.	16f]	_	.	.	.	.	.	.	.
.	.	16f	your	.	.	.	.	.	.	.
.	.	8d	way	.	.	.	.	A	.	.
=30	=30	=30	=30	=30	=30	=30	=30	=30	=30	=30
1CM	C:sus4(b7)	[2c	_	1r	.	1r	.	.	71.56	.
.	.	8c]	_	.	.	.	.	.	.	.
.	.	8d	_	.	.	.	.	.	.	.
.	.	4r	.	.	.	.	.	.	.	.
=31	=31	=31	=31	=31	=31	=31	=31	=31	=31	=31
1CM	C:maj	8r	.	8r	.	1r	.	.	74.019	.
.	.	8aq	_	8fq	_	.	.	.	.	.
.	.	8b-	_	8g	_	.	.	.	.	.
.	.	8a	on	8f	on	.	.	.	.	.
.	.	8f	for	8c	for	.	.	.	.	.
.	.	8f	one	8c	one	.	.	.	.	.
.	.	8c	more	8A	more	.	.	.	.	.
.	.	8dq	_	8B-q	_	.	.	.	.	.
.	.	8f	day	8c	day	.	.	A	.	.
.	.	8r	.	8r	.	.	.	.	.	.
=32	=32	=32	=32	=32	=32	=32	=32	=32	=32	=32
*>Letter>D	*>Letter>D	*>Letter>D	*>Letter>D	*>Letter>D	*>Letter>D	*>Letter>D	*>Letter>D	*>Letter>D	*>Letter>D	*>Letter>D
*>Label>Interlude	*>Label>Interlude	*>Label>Interlude	*>Label>Interlude	*>Label>Interlude	*>Label>Interlude	*>Label>Interlude	*>Label>Interlude	*>Label>Interlude	*>Label>Interlude	*>Label>Interlude
4.FM	F:maj	1r	.	1r	.	1r	.	.	76.478	newline
2CM	C:maj/4	.	.	.	.	.	.	.	77.704	.
8B-M	B-:maj/5	.	.	.	.	.	.	.	.	.
=33	=33	=33	=33	=33	=33	=33	=33	=33	=33	=33
2.B-M	B-:maj/5	1r	.	1r	.	1r	.	.	78.929	.
4CM	C:maj/4	.	.	.	.	.	.	.	80.767	.
=34	=34	=34	=34	=34	=34	=34	=34	=34	=34	=34
4.FM	F:maj	1r	.	1r	.	1r	.	.	81.379	.
2CM	C:maj/4	.	.	.	.	.	.	.	82.605	.
8B-M	B-:maj/5	.	.	.	.	.	.	.	.	.
=35	=35	=35	=35	=35	=35	=35	=35	=35	=35	=35
2.B-M	B-:maj/5	1r	.	1r	.	1r	.	.	83.83	.
4CM	C:maj/4	.	.	.	.	.	.	.	85.668	.
=36	=36	=36	=36	=36	=36	=36	=36	=36	=36	=36
*>Letter>B	*>Letter>B	*>Letter>B	*>Letter>B	*>Letter>B	*>Letter>B	*>Letter>B	*>Letter>B	*>Letter>B	*>Letter>B	*>Letter>B
*>Label>Verse	*>Label>Verse	*>Label>Verse	*>Label>Verse	*>Label>Verse	*>Label>Verse	*>Label>Verse	*>Label>Verse	*>Label>Verse	*>Label>Verse	*>Label>Verse
4.FM	F:maj	8a	You	8c	_	1r	.	.	86.28	newline
.	.	8f	could	8~A	_	.	.	.	.	.
.	.	8~f	sus-	8~A	_	.	.	.	.	.
.	.	.	.	8B-q	_	.	.	.	.	.
2CM	C:maj/4	8f	-stain	8c	_	.	.	A	87.517	.
.	.	2r	.	2r	.	.	.	.	.	.
8B-M	B-:maj/5	.	.	.	.	.	.	.	.	.
=37	=37	=37	=37	=37	=37	=37	=37	=37	=37	=37
2.B-M	B-:maj/5	4r	.	4r	.	1r	.	.	88.753	.
.	.	8r	.	8r	.	.	.	.	.	.
.	.	[8a	mmm,	[8d	_	.	.	.	.	.
.	.	8a]	_	8d]	_	.	.	.	.	.
.	.	8a	or	8d	_	.	.	.	.	.
4Am	A:min/5	8a	are	8d	_	.	.	.	90.608	.
.	.	8a	you	8d	_	.	.	.	.	.
=38	=38	=38	=38	=38	=38	=38	=38	=38	=38	=38
2..Dm	D:min	8a	comf-	8d	_	1r	.	.	91.226	.
.	.	8f	-ta-	8A	_	.	.	.	.	.
.	.	8f	-ble	8A	_	.	.	.	.	.
.	.	8f	with	8A	_	.	.	.	.	.
.	.	8e	the	8~A	_	.	.	.	.	.
.	.	8eq	_	8Aq	_	.	.	.	.	.
.	.	4f	pain	4B-	_	.	.	A	.	.
8B-M	B-:maj	8r	.	8r	.	.	.	.	93.699	.
=39	=39	=39	=39	=39	=39	=39	=39	=39	=39	=39
2B-M	B-:maj	2r	.	1r	.	1r	.	.	94.935	.
2CM	C:sus4(b7)	4r	.	.	.	.	.	.	.	.
.	.	8c	You've	.	.	.	.	.	.	.
.	.	8c	got	.	.	.	.	.	.	.
=40	=40	=40	=40	=40	=40	=40	=40	=40	=40	=40
.	.	8cq	_	.	.	.	.	.	.	.
4.FM	F:maj	8d	no	1r	.	1r	.	.	96.171	newline
.	.	8f	one	.	.	.	.	.	.	.
.	.	8f	to	.	.	.	.	.	.	.
.	.	8cq	_	.	.	.	.	.	.	.
2CM	C:maj/4	[8d	blame	.	.	.	.	A	97.396	.
.	.	16d]	_	.	.	.	.	.	.	.
.	.	16f	for	.	.	.	.	.	.	.
.	.	8f	this	.	.	.	.	.	.	.
.	.	8f	un-	.	.	.	.	.	.	.
.	.	8cq	_	.	.	.	.	.	.	.
8B-M	B-:maj/5	[8d	-ha	.	.	.	.	.	.	.
=41	=41	=41	=41	=41	=41	=41	=41	=41	=41	=41
2.B-M	B-:maj/5	16d]	_	2r	.	1r	.	.	98.62	.
.	.	16c	pi-	.	.	.	.	.	.	.
.	.	[8c	-ness	.	.	.	.	D	.	.
.	.	8c]	_	.	.	.	.	.	.	.
.	.	8r	.	.	.	.	.	.	.	.
.	.	2r	.	8r	.	.	.	.	.	.
.	.	.	.	8cc	No,	.	.	.	.	.
4CM	C:maj/4	.	.	8g	ba-	.	.	.	100.456	.
.	.	.	.	[8f	-by	.	.	.	.	.
=42	=42	=42	=42	=42	=42	=42	=42	=42	=42	=42
4.FM	F:maj	8a	You	4.f]	_	1r	.	.	101.069	.
.	.	8a	got	.	.	.	.	.	.	.
.	.	8a	your-	.	.	.	.	.	.	.
2CM	C:maj/4	8a	-self	8r	.	.	.	.	102.293	.
.	.	8a	in-	4r	.	.	.	.	.	.
.	.	8a	-to	.	.	.	.	.	.	.
.	.	8a	your	4r	.	.	.	.	.	.
8B-M	B-:maj/5	8cc	own	.	.	.	.	.	.	.
=43	=43	=43	=43	=43	=43	=43	=43	=43	=43	=43
2.B-M	B-:maj/5	8f	mess	4r	.	1r	.	D	103.517	.
.	.	8r	.	.	.	.	.	.	.	.
.	.	4r	.	8r	.	.	.	.	.	.
.	.	.	.	[8a	Ooh	.	.	.	.	.
.	.	2r	.	16a]	_	.	.	.	.	.
.	.	.	.	16g	_	.	.	.	.	.
.	.	.	.	[8f	_	.	.	.	.	.
4CM	C:maj/4	.	.	16f]	_	.	.	.	105.354	.
.	.	.	.	16d	_	.	.	.	.	.
.	.	.	.	[8c	_	.	.	.	.	.
=44	=44	=44	=44	=44	=44	=44	=44	=44	=44	=44
4.FM	F:maj	8a	Let-	4c]	_	1r	.	.	105.966	newline
.	.	8c	-tin'	.	.	.	.	.	.	.
.	.	8c	your	4r	.	.	.	.	.	.
2CM	C:maj/4	8g	wor-	.	.	.	.	.	107.19	.
.	.	8fq	_	.	.	.	.	.	.	.
.	.	8g	-ries	2r	.	.	.	.	.	.
.	.	8g	pass	.	.	.	.	.	.	.
.	.	8a	you	.	.	.	.	.	.	.
.	.	8fq	_	.	.	.	.	.	.	.
8B-M	B-:maj/5	8g	by	.	.	.	.	B	.	.
=45	=45	=45	=45	=45	=45	=45	=45	=45	=45	=45
2.B-M	B-:maj/5	8f	_	8a	Let-	1r	.	.	108.414	.
.	.	8d	_	8c	-tin'	.	.	.	.	.
.	.	8r	.	8c	your	.	.	.	.	.
.	.	8f	Huh!	8g	wor	.	.	.	.	.
.	.	.	.	8fq	_	.	.	.	.	.
.	.	8r	.	8g	ries	.	.	.	.	.
.	.	[8f	ba	8g	pass	.	.	.	.	.
4Am	A:min/5	8f]	_	8a	you	.	.	.	110.25	.
.	.	.	.	8fq	_	.	.	.	.	.
.	.	8d	by	8g	by!	.	.	.	.	.
=46	=46	=46	=46	=46	=46	=46	=46	=46	=46	=46
8%5Dm	D:min	8r	.	4f	_	1r	.	.	110.863	.
.	.	8f	Don't	.	.	.	.	.	.	.
.	.	8d	you	4r	.	.	.	.	.	.
.	.	8f	think	.	.	.	.	.	.	.
.	.	8d	it's	4r	.	.	.	.	.	.
4FM	F:maj/3	8f	worth	.	.	.	.	.	112.699	.
.	.	8d	your	8r	.	.	.	.	.	.
8B-M	B-:maj	8f	time	8b-	time	.	.	B	.	.
=47	=47	=47	=47	=47	=47	=47	=47	=47	=47	=47
*	*	*clefF4	*	*	*	*	*	*	*	*
.	.	8eq	_	8aq	_	.	.	.	.	.
1B-M	B-:maj	8f	_	8b-	_	1r	.	.	113.311	.
*	*	*	*	*clefF4	*	*	*	*	*	*
.	.	16r	.	16r	.	.	.	.	.	.
.	.	16A	to	16A	to	.	.	.	.	.
.	.	8cq	_	8Aq	_	.	.	.	.	.
.	.	8d	change	8B-	change	.	.	A	.	.
.	.	8c	_	8A	_	.	.	.	.	.
.	.	8c	your	8F	your	.	.	.	.	.
.	.	8Aq	_	8Fq	_	.	.	.	.	.
.	.	8B-	mind	8F	mind	.	.	B	.	.
.	.	4r	.	4r	.	.	.	.	.	.
=48	=48	=48	=48	=48	=48	=48	=48	=48	=48	=48
1CM	C:sus4(b7)	4c	_	4G	_	1r	.	.	115.759	.
*	*	*clefG2	*	*	*	*	*	*	*	*
.	.	8r	.	8r	.	.	.	.	.	.
.	.	8dd	No,	8r	.	.	.	.	.	.
.	.	8cc	_	2r	.	.	.	.	.	.
.	.	8g	n-	.	.	.	.	.	.	.
.	.	8g	-no!	.	.	.	.	.	.	.
.	.	8f	_	.	.	.	.	.	.	.
=49	=49	=49	=49	=49	=49	=49	=49	=49	=49	=49
*>Letter>C	*>Letter>C	*>Letter>C	*>Letter>C	*>Letter>C	*>Letter>C	*>Letter>C	*>Letter>C	*>Letter>C	*>Letter>C	*>Letter>C
*>Label>Chorus	*>Label>Chorus	*>Label>Chorus	*>Label>Chorus	*>Label>Chorus	*>Label>Chorus	*>Label>Chorus	*>Label>Chorus	*>Label>Chorus	*>Label>Chorus	*>Label>Chorus
4.FM	F:maj	8r	.	8r	.	1r	.	.	118.208	newline
.	.	8d	Some	8A	Some	.	.	.	.	.
.	.	8f	day	8c	day	.	.	.	.	.
8%5B-M	B-:maj/5	8d	some-	8B-	some-	.	.	.	119.441	.
.	.	16f	-bo-	16c	-bo-	.	.	.	.	.
.	.	16f	-dy's	16c	-dy's	.	.	.	.	.
.	.	16d	gon-	16B-	gon-	.	.	.	.	.
.	.	16d	-na	16B-	-na	.	.	.	.	.
.	.	16f	make	16c	make	.	.	.	.	.
.	.	16f	you	16c	you	.	.	.	.	.
.	.	16f	wan-	16c	wan-	.	.	.	.	.
.	.	16d	-na	16A	-na	.	.	.	.	.
=50	=50	=50	=50	=50	=50	=50	=50	=50	=50	=50
4.CM	C:maj/4	16f	turn	16c	turn	1r	.	.	120.674	.
.	.	16f	a-	16c	a-	.	.	.	.	.
.	.	16f	-round	16c	-round	.	.	C	.	.
.	.	16d	and	16A	and	.	.	.	.	.
.	.	8f	say	8c	say	.	.	A	.	.
8%5FM	F:maj	16d	good-	16A	good-	.	.	.	121.907	.
.	.	[16a [16cc	-bye	[16f	-bye	.	.	B	.	.
.	.	8a] 8cc]	_	8f]	_	.	.	.	.	.
.	.	8gq 8b-q	_	8eq	_	.	.	.	.	.
.	.	8a 8cc	_	8f	_	.	.	.	.	.
.	.	4r	.	4r	.	.	.	.	.	.
=51	=51	=51	=51	=51	=51	=51	=51	=51	=51	=51
4.FM	F:maj	16r	.	8r	.	1r	.	.	123.14	.
.	.	16~f	_	.	.	.	.	.	.	.
.	.	8cc 8ff	'Till	8a	'Till	.	.	.	.	.
.	.	8cc 8ff	then,	8a	then,	.	.	.	.	.
8%5B-M	B-:maj/5	8f 8cc	ba-	16c	ba-	.	.	.	124.373	.
.	.	.	.	16d	_	.	.	.	.	.
.	.	8f 8cc	-by,	8d	-by,	.	.	.	.	.
.	.	16c	are	16F	are	.	.	.	.	.
.	.	16c	you	16G	you	.	.	.	.	.
.	.	16c	gon-	16A	gon-	.	.	.	.	.
.	.	16c	-na	16A	-na	.	.	.	.	.
.	.	16c	let	16A	let	.	.	.	.	.
.	.	16A	'em	16F	'em	.	.	.	.	.
=52	=52	=52	=52	=52	=52	=52	=52	=52	=52	=52
4.CM	C:maj/4	16d	hold	16A	hold	1r	.	.	125.606	.
.	.	16A	you	16A	you	.	.	.	.	.
.	.	16c	down	16A	down	.	.	C	.	.
.	.	16A	and	16F	and	.	.	.	.	.
.	.	8c	make	8A	make	.	.	A	.	.
8%5FM	F:maj	16A	you	16F	you	.	.	.	126.839	.
.	.	16c	cry	16A	cry	.	.	B	.	.
.	.	8A	_	8F	_	.	.	.	.	.
.	.	8r	.	8r	.	.	.	.	.	.
.	.	16c	Don't	16c	Don't	.	.	.	.	.
.	.	16d	you	16d	you	.	.	.	.	.
.	.	8f	know	8f	know	.	.	.	.	.
=53	=53	=53	=53	=53	=53	=53	=53	=53	=53	=53
*	*	*	*	*clefG2	*	*	*	*	*	*
4.FM	F:maj	8r	.	8r	.	1r	.	.	128.072	newline
.	.	16f 16a	don't	16c	don't	.	.	.	.	.
.	.	16g 16b-	you	16d	you	.	.	.	.	.
.	.	16g 16b-	know	16d	know	.	.	.	.	.
.	.	16a 16cc	_	16f	_	.	.	.	.	.
8%5B-M	B-:maj/5	8r	.	8r	.	.	.	.	129.288	.
.	.	16f 16a	things	16c	things	.	.	.	.	.
.	.	16g 16b-	'll	16d	'll	.	.	.	.	.
.	.	16g 16b-	change	16d	change	.	.	A	.	.
.	.	16a 16cc	_	16f	_	.	.	.	.	.
.	.	4r	.	4r	.	.	.	.	.	.
=54	=54	=54	=54	=54	=54	=54	=54	=54	=54	=54
4.CM	C:maj/4	16f 16a	things	16c	things	1r	.	.	130.505	.
.	.	16g 16b-	'll	16d	'll	.	.	.	.	.
.	.	16a 16cc	go	16f	go	.	.	.	.	.
.	.	16a 16cc	y-	16f	y-	.	.	.	.	.
.	.	8a 8cc	-your	8f	-your	.	.	.	.	.
8%5FM	F:maj	8a 8cc	way	8f	way?	.	.	A	131.722	.
.	.	8r	.	2r	.	.	.	.	.	.
.	.	16f	Can	.	.	.	.	.	.	.
.	.	16f	you	.	.	.	.	.	.	.
.	.	8b-q	_	.	.	.	.	.	.	.
.	.	[4cc	hold	.	.	.	.	.	.	.
=55	=55	=55	=55	=55	=55	=55	=55	=55	=55	=55
4.B-M	B-:maj	8cc]	_	1r	.	1r	.	.	132.938	.
.	.	8f	_	.	.	.	.	.	.	.
.	.	8f	_	.	.	.	.	.	.	.
8%5FM	F:maj/3	8f	on	.	.	.	.	.	134.155	.
.	.	8c	_	.	.	.	.	.	.	.
.	.	8r	.	.	.	.	.	.	.	.
.	.	8f	for	.	.	.	.	.	.	.
.	.	8f	one	.	.	.	.	.	.	.
=56	=56	=56	=56	=56	=56	=56	=56	=56	=56	=56
4.Gmm	G:min7	8f	more	2r	.	1r	.	.	135.372	.
.	.	8cq	_	.	.	.	.	.	.	.
.	.	8d	day	.	.	.	.	A	.	.
.	.	4c	_	.	.	.	.	.	.	.
8%5CM	C:sus4	.	.	.	.	.	.	.	136.588	.
.	.	8r	.	8r	.	.	.	.	.	.
.	.	16c	Can	16c	Can	.	.	.	.	.
.	.	16c	you	16c	you	.	.	.	.	.
.	.	[4g	hold	[4b-	hold	.	.	.	.	.
=57	=57	=57	=57	=57	=57	=57	=57	=57	=57	=57
4.B-M	B-:maj	8g]	_	8b-]	_	1r	.	.	137.805	newline
.	.	24g	_	24b-	_	.	.	.	.	.
.	.	24a-	_	24cc	_	.	.	.	.	.
.	.	[24g	_	24b-	_	.	.	.	.	.
.	.	8g]	_	8a	_	.	.	.	.	.
8%5FM	F:maj/3	8f	on	8a	on	.	.	.	139.04	.
.	.	8cq	_	8fq	_	.	.	.	.	.
.	.	8d	_	8g	_	.	.	.	.	.
.	.	8c	_	8f	_	.	.	.	.	.
.	.	8c	for	8f	for	.	.	.	.	.
.	.	8c	one	8f	one	.	.	.	.	.
=58	=58	=58	=58	=58	=58	=58	=58	=58	=58	=58
1Gmm	G:min7	8f	more	8b-	more	1r	.	.	140.276	.
.	.	4f	day	4b-	day	.	.	A	.	.
.	.	8r	.	8r	.	.	.	.	.	.
.	.	8f	Things	2r	.	.	.	.	.	.
.	.	16d	'll	.	.	.	.	.	.	.
.	.	[16f	go	.	.	.	.	.	.	.
.	.	16f]	_	.	.	.	.	.	.	.
.	.	16f	your	.	.	.	.	.	.	.
.	.	8d	way	.	.	.	.	A	.	.
=59	=59	=59	=59	=59	=59	=59	=59	=59	=59	=59
1CM	C:sus4(b7)	[2c	_	4f	Oh,	1r	.	.	142.747	.
.	.	.	.	8f	things	.	.	.	.	.
.	.	.	.	8f	will	.	.	.	.	.
.	.	8c]	_	4f	go	.	.	.	.	.
.	.	8d	_	.	.	.	.	.	.	.
.	.	4r	.	8f	your	.	.	.	.	.
.	.	.	.	[8f	way	.	.	A	.	.
=60	=60	=60	=60	=60	=60	=60	=60	=60	=60	=60
1CM	C:maj	8r	.	4.f]	_	1r	.	.	145.218	.
.	.	8aq	_	.	.	.	.	.	.	.
.	.	8b-	_	.	.	.	.	.	.	.
.	.	8a	on	.	.	.	.	.	.	.
.	.	8f	for	8r	.	.	.	.	.	.
.	.	8f	one	2r	.	.	.	.	.	.
.	.	8c	more	.	.	.	.	.	.	.
.	.	8B-q	_	.	.	.	.	.	.	.
.	.	16c	day!	.	.	.	.	A	.	.
.	.	16B-	_	.	.	.	.	.	.	.
.	.	8A	_	.	.	.	.	.	.	.
=61	=61	=61	=61	=61	=61	=61	=61	=61	=61	=61
*>Letter>E	*>Letter>E	*>Letter>E	*>Letter>E	*>Letter>E	*>Letter>E	*>Letter>E	*>Letter>E	*>Letter>E	*>Letter>E	*>Letter>E
*>Label>Bridge	*>Label>Bridge	*>Label>Bridge	*>Label>Bridge	*>Label>Bridge	*>Label>Bridge	*>Label>Bridge	*>Label>Bridge	*>Label>Bridge	*>Label>Bridge	*>Label>Bridge
4.FM	F:maj	8r	.	1r	.	1r	.	.	147.689	newline
.	.	8d	I	.	.	.	.	.	.	.
.	.	8f	know	.	.	.	.	.	.	.
2CM	C:maj/4	16d	that	.	.	.	.	.	148.916	.
.	.	[16f	there	.	.	.	.	.	.	.
.	.	16f]	_	.	.	.	.	.	.	.
.	.	16d	is	.	.	.	.	.	.	.
.	.	[8c	pain,	.	.	.	.	A	.	.
.	.	8c]	_	.	.	.	.	.	.	.
8B-M	B-:maj/5	16c	but	.	.	.	.	.	.	.
.	.	16c	you	.	.	.	.	.	.	.
=62	=62	=62	=62	=62	=62	=62	=62	=62	=62	=62
2.B-M	B-:maj/5	8r	.	1r	.	1r	.	.	150.144	.
.	.	16c	hold	.	.	.	.	.	.	.
.	.	16d	_	.	.	.	.	.	.	.
.	.	8f	on	.	.	.	.	.	.	.
.	.	16d	for	.	.	.	.	.	.	.
.	.	[16f	one	.	.	.	.	.	.	.
.	.	16f]	_	.	.	.	.	.	.	.
.	.	16d	more	.	.	.	.	.	.	.
.	.	[8c	day,	.	.	.	.	A	.	.
4CM	C:maj/4	8c]	_	.	.	.	.	.	151.985	.
.	.	16c	and	.	.	.	.	.	.	.
.	.	16c	you	.	.	.	.	.	.	.
=63	=63	=63	=63	=63	=63	=63	=63	=63	=63	=63
*	*	*clefG2	*	*	*	*	*	*	*	*
4.FM	F:maj	8r	.	8r	.	1r	.	.	152.599	.
.	.	8a	break	8f	break	.	.	.	.	.
.	.	8.g	free	8.e	free	.	.	.	.	.
2CM	C:maj/4	.	.	.	.	.	.	.	153.827	.
.	.	[16e	from	[16c	from	.	.	.	.	.
.	.	16e]	_	16c]	_	.	.	.	.	.
.	.	16e	the	16c	the	.	.	.	.	.
.	.	[8e	chains	[8c	chains	.	.	A	.	.
.	.	8e]	_	8c]	_	.	.	.	.	.
8B-M	B-:maj/5	[8d	_	[8B-	_	.	.	.	.	.
=64	=64	=64	=64	=64	=64	=64	=64	=64	=64	=64
1B-M	B-:maj/5	2.d]	_	2.B-]	_	1r	.	.	155.054	.
.	.	4r	.	4r	.	.	.	.	.	.
=65	=65	=65	=65	=65	=65	=65	=65	=65	=65	=65
4.FM	F:maj	16r	.	1r	.	1r	.	.	157.509	newline
.	.	16c	Yeah,	.	.	.	.	.	.	.
.	.	8cc	I	.	.	.	.	.	.	.
.	.	8g	know	.	.	.	.	.	.	.
2CM	C:maj/4	16g	that	.	.	.	.	.	158.739	.
.	.	[16g	there	.	.	.	.	.	.	.
.	.	16g]	_	.	.	.	.	.	.	.
.	.	16f	is	.	.	.	.	.	.	.
.	.	[8f	pain,	.	.	.	.	A	.	.
.	.	8f]	_	.	.	.	.	.	.	.
8B-M	B-:maj/5	16d	but	.	.	.	.	.	.	.
.	.	16~F	you	.	.	.	.	.	.	.
=66	=66	=66	=66	=66	=66	=66	=66	=66	=66	=66
2.B-M	B-:maj/5	8r	.	1r	.	1r	.	.	159.969	.
.	.	16c	hold	.	.	.	.	.	.	.
.	.	16d	_	.	.	.	.	.	.	.
.	.	8f	on	.	.	.	.	.	.	.
.	.	16d	for	.	.	.	.	.	.	.
.	.	[16f	one	.	.	.	.	.	.	.
.	.	16f]	_	.	.	.	.	.	.	.
.	.	16d	more	.	.	.	.	.	.	.
.	.	8fq	_	.	.	.	.	.	.	.
.	.	[8g	day,	.	.	.	.	A	.	.
4CM	C:maj/4	8g]	_	.	.	.	.	.	161.813	.
.	.	16g	and	.	.	.	.	.	.	.
.	.	16g	you	.	.	.	.	.	.	.
=67	=67	=67	=67	=67	=67	=67	=67	=67	=67	=67
4.FM	F:maj	8r	.	1r	.	1r	.	.	162.428	.
.	.	8cc	break	.	.	.	.	.	.	.
.	.	16g	free,	.	.	.	.	.	.	.
.	.	16a	_	.	.	.	.	.	.	.
2CM	C:maj/4	8cc	break	.	.	.	.	.	163.658	.
.	.	8g	from	.	.	.	.	.	.	.
.	.	16g	the	.	.	.	.	.	.	.
.	.	[16g	chains	.	.	.	.	A	.	.
.	.	8g]	_	.	.	.	.	.	.	.
8B-M	B-:maj/5	[8f	_	.	.	.	.	.	.	.
=68	=68	=68	=68	=68	=68	=68	=68	=68	=68	=68
1B-M	B-:maj/5	8.f]	_	1r	.	1r	.	.	164.887	.
.	.	16r	.	.	.	.	.	.	.	.
.	.	4r	.	.	.	.	.	.	.	.
.	.	2r	.	.	.	.	.	.	.	.
=69	=69	=69	=69	=69	=69	=69	=69	=69	=69	=69
*>Letter>F	*>Letter>F	*>Letter>F	*>Letter>F	*>Letter>F	*>Letter>F	*>Letter>F	*>Letter>F	*>Letter>F	*>Letter>F	*>Letter>F
*>Label>Outro	*>Label>Outro	*>Label>Outro	*>Label>Outro	*>Label>Outro	*>Label>Outro	*>Label>Outro	*>Label>Outro	*>Label>Outro	*>Label>Outro	*>Label>Outro
4.FM	N	8r	.	8r	.	1r	.	.	167.347	newline
.	.	8d 8g	Some	8A	Some	.	.	.	.	.
.	.	8f 8a	day	8c	day	.	.	.	.	.
8%5B-M	N	8d 8g	some-	8B-	some-	.	.	.	169.808	.
.	.	16f 16a	-bo-	16c	-bo-	.	.	.	.	.
.	.	16f 16a	-dy's	16c	-dy's	.	.	.	.	.
.	.	16d 16g	gon-	16B-	gon-	.	.	.	.	.
.	.	16d 16g	-na	16B-	-na	.	.	.	.	.
.	.	16f 16a	make	16c	make	.	.	.	.	.
.	.	16f 16a	you	16c	you	.	.	.	.	.
.	.	16f 16a	wan-	16c	wan-	.	.	.	.	.
.	.	16d 16g	-na	16A	-na	.	.	.	.	.
=70	=70	=70	=70	=70	=70	=70	=70	=70	=70	=70
4.CM	N	16f 16a	turn	16c	turn	1r	.	.	172.269	.
.	.	16f 16a	a-	16c	a-	.	.	.	.	.
.	.	16f 16a	-round	16c	-round	.	.	C	.	.
.	.	16d 16g	and	16A	and	.	.	.	.	.
.	.	8f 8a	say	8c	say	.	.	A	.	.
8%5FM	N	16d 16g	good-	16A	good-	.	.	.	174.73	.
.	.	[16a [16cc	-bye	[16f	-bye	.	.	B	.	.
.	.	8a] 8cc]	_	8f]	_	.	.	.	.	.
.	.	8gq 8b-q	_	8eq	_	.	.	.	.	.
.	.	8a 8cc	_	8f	_	.	.	.	.	.
.	.	4r	.	8f	(Say,	.	.	.	.	.
.	.	.	.	16d	good-	.	.	.	.	.
.	.	.	.	[16a	-bye	.	.	B	.	.
=71	=71	=71	=71	=71	=71	=71	=71	=71	=71	=71
4.FM	N	16r	.	8a]	_	8r	.	.	.	newline
.	.	16~f	_	.	.	.	.	.	.	.
.	.	.	.	8gq	_	.	.	.	.	.
.	.	16b- 16dd	'Till	8a	_	16g	'Till	.	.	.
.	.	16cc 16ff	_	.	.	16a	_	.	.	.
.	.	8cc 8ff	then,	4r	.	8a	then,	.	.	.
8%5B-M	N	8f 8a	ba-	.	.	16c	ba-	.	.	.
.	.	.	.	.	.	16d	_	.	.	.
.	.	8f 8b-	-by,	2r	.	8d	-by,	.	.	.
*	*	*	*	*	*	*clefF4	*	*	*	*
.	.	16c	are	.	.	16F	are	.	.	.
.	.	16c	you	.	.	16G	you	.	.	.
.	.	16c	gon-	.	.	16A	gon-	.	.	.
.	.	16c	-na	.	.	16A	-na	.	.	.
.	.	16c	let	.	.	16A	let	.	.	.
.	.	16A	'em	.	.	16F	'em	.	.	.
=72	=72	=72	=72	=72	=72	=72	=72	=72	=72	=72
4.CM	N	16d	hold	2r	.	16A	hold	.	.	.
.	.	16A	you	.	.	16A	you	.	.	.
.	.	16c	down	.	.	16A	down	C	.	.
.	.	16A	and	.	.	16F	and	.	.	.
.	.	8c	make	.	.	8A	make	A	.	.
8%5FM	N	16A	you	.	.	16F	you	.	.	.
.	.	16c	cry	.	.	16A	cry	B	.	.
.	.	8A	_	4r	.	8F	_	.	.	.
.	.	8r	.	.	.	8r	.	.	.	.
.	.	16c	Don't	16c	Don't	8r	.	.	.	.
.	.	16d	you	16d	you	.	.	.	.	.
.	.	8f	know	8f	know	8r	.	.	.	.
=73	=73	=73	=73	=73	=73	=73	=73	=73	=73	=73
.	.	.	.	8cq	_	.	.	.	.	.
4.FM	F:1	8r	.	8d	_	8r	.	.	177.191	newline
.	.	16f 16a	don't	8r	.	16c	don't	.	.	.
.	.	16g 16b-	you	.	.	16d	you	.	.	.
.	.	16g 16b-	know	8r	.	16d	know	.	.	.
.	.	16a 16cc	_	.	.	16f	_	.	.	.
8%5B-M	F:1	8r	.	8f	Know!	8r	.	.	179.648	.
.	.	16f 16a	things	4r	.	16c	things	.	.	.
.	.	16g 16b-	'll	.	.	16d	'll	.	.	.
.	.	16g 16b-	change	.	.	16d	change	A	.	.
.	.	16a 16cc	_	.	.	16f	_	.	.	.
.	.	.	.	8gq	_	.	.	.	.	.
.	.	4r	.	8a	Know!	4r	.	.	.	.
.	.	.	.	8r	.	.	.	.	.	.
=74	=74	=74	=74	=74	=74	=74	=74	=74	=74	=74
4.CM	F:1	16f 16a	things	1r	.	16c	things	.	182.104	.
.	.	16g 16b-	'll	.	.	16d	'll	.	.	.
.	.	16a 16cc	go	.	.	16f	go	.	.	.
.	.	16a 16cc	y-	.	.	16f	y-	.	.	.
.	.	8a 8cc	-your	.	.	8f	-your	.	.	.
8%5FM	F:1	8a 8cc	way	.	.	8f	way	A	183.332	.
.	.	8r	.	.	.	2r	.	.	.	.
.	.	16f	Can	.	.	.	.	.	.	.
.	.	16f	you	.	.	.	.	.	.	.
.	.	8b-q	_	.	.	.	.	.	.	.
.	.	[4cc	hold	.	.	.	.	.	.	.
=75	=75	=75	=75	=75	=75	=75	=75	=75	=75	=75
4.B-M	B-:maj	8cc]	_	1r	.	1r	.	.	184.56	.
.	.	8f	_	.	.	.	.	.	.	.
.	.	8f	_	.	.	.	.	.	.	.
8%5FM	F:maj/3	8f	on	.	.	.	.	.	185.789	.
.	.	8c	_	.	.	.	.	.	.	.
.	.	8r	.	.	.	.	.	.	.	.
.	.	8cc	for	.	.	.	.	.	.	.
.	.	8cc	one	.	.	.	.	.	.	.
=76	=76	=76	=76	=76	=76	=76	=76	=76	=76	=76
2Gmm	G:min7	8g	more	4r	.	1r	.	.	.	.
.	.	8aq	_	.	.	.	.	.	.	.
.	.	8g	day	.	.	.	.	A	.	.
.	.	4f	_	8r	.	.	.	.	.	.
.	.	.	.	16g	Yeah	.	.	.	.	.
.	.	.	.	16a	_	.	.	.	.	.
2CM	C:sus4	8r	.	8r	.	.	.	.	.	.
.	.	16c	Can	16c	Can	.	.	.	.	.
.	.	16c	you	16c	you	.	.	.	.	.
.	.	8g	hold	8d	hold	.	.	.	.	.
.	.	8fq	_	8cq	_	.	.	.	.	.
.	.	[8g	_	[8d	_	.	.	.	.	.
=77	=77	=77	=77	=77	=77	=77	=77	=77	=77	=77
4.FM	F:maj	8g]	_	8d]	_	1r	.	.	187.017	newline
.	.	16a	_	16f	_	.	.	.	.	.
.	.	16g	_	16d	_	.	.	.	.	.
.	.	8f	_	8c	_	.	.	.	.	.
8%5B-M	B-:maj/5	[8f	on	[8c	on	.	.	.	188.242	.
.	.	2f_	_	2c_	_	.	.	.	.	.
=78	=78	=78	=78	=78	=78	=78	=78	=78	=78	=78
4.CM	C:maj/4	1f_	_	1f	_	1r	.	.	189.467	.
8%5FM	F:maj	.	.	.	.	.	.	.	190.692	.
=79	=79	=79	=79	=79	=79	=79	=79	=79	=79	=79
4.FM	F:maj	4f_	_	1r	.	1r	.	.	191.918	.
.	.	16f]	_	.	.	.	.	.	.	.
.	.	8r	.	.	.	.	.	.	.	.
8%5B-M	B-:maj/5	.	.	.	.	.	.	.	193.143	.
.	.	16r	.	.	.	.	.	.	.	.
.	.	2r	.	.	.	.	.	.	.	.
=80	=80	=80	=80	=80	=80	=80	=80	=80	=80	=80
4.CM	C:maj/4	1r	.	1r	.	1r	.	.	194.368	.
8%5FM	F:maj	.	.	.	.	.	.	.	195.593	.
=81	=81	=81	=81	=81	=81	=81	=81	=81	=81	=81
4.FM	F:maj	8r	.	8r	.	1r	.	.	196.818	newline
.	.	16f 16a	don't	16c]	don't	.	.	.	.	.
.	.	16g 16b-	you	16d	you	.	.	.	.	.
.	.	16g 16b-	know	16d	know	.	.	.	.	.
.	.	16a 16cc	_	16f	_	.	.	.	.	.
8%5B-M	B-:maj/5	8r	.	8r	.	.	.	.	198.041	.
.	.	16f 16a	things	16c	things	.	.	.	.	.
.	.	16g 16b-	'll	16d	'll	.	.	.	.	.
.	.	16g 16b-	change	16d	change	.	.	A	.	.
.	.	16a 16cc	_	16f	_	.	.	.	.	.
.	.	4r	.	4r	.	.	.	.	.	.
=82	=82	=82	=82	=82	=82	=82	=82	=82	=82	=82
4.CM	C:maj/4	16f 16a	things	16c	things	1r	.	.	199.263	.
.	.	16g 16b-	'll	16d	'll	.	.	.	.	.
.	.	16a 16cc	go	16f	go	.	.	.	.	.
.	.	16a 16cc	y-	16f	y-	.	.	.	.	.
.	.	8a 8cc	-your	8f	-your	.	.	.	.	.
8%5FM	F:maj	8a 8cc	way	8f	way	.	.	A	200.486	.
.	.	8r	.	2r	.	.	.	.	.	.
.	.	16f	Can	.	.	.	.	.	.	.
.	.	16f	you	.	.	.	.	.	.	.
.	.	8b-q	_	.	.	.	.	.	.	.
.	.	[4cc	hold	.	.	.	.	.	.	.
=83	=83	=83	=83	=83	=83	=83	=83	=83	=83	=83
4.B-M	B-:maj	8cc]	_	1r	.	1r	.	.	201.708	.
.	.	8f	_	.	.	.	.	.	.	.
.	.	8f	_	.	.	.	.	.	.	.
8%5FM	F:maj/3	8f	on	.	.	.	.	.	202.93	.
.	.	8c	_	.	.	.	.	.	.	.
.	.	8r	.	.	.	.	.	.	.	.
.	.	8cc	for	.	.	.	.	.	.	.
.	.	8cc	one	.	.	.	.	.	.	.
=84	=84	=84	=84	=84	=84	=84	=84	=84	=84	=84
2Gmm	G:min7	8g	more	2r	.	1r	.	.	204.153	.
.	.	8aq	_	.	.	.	.	.	.	.
.	.	8g	day	.	.	.	.	A	.	.
.	.	4f	_	.	.	.	.	.	.	.
2CM	C:sus4	8r	.	8r	.	.	.	.	205.375	.
.	.	16c	Can	16c	Can	.	.	.	.	.
.	.	16c	you	16c	you	.	.	.	.	.
.	.	8g 8b-	hold	8d	hold	.	.	.	.	.
.	.	[8g [8b-	_	[8d	_	.	.	.	.	.
=85	=85	=85	=85	=85	=85	=85	=85	=85	=85	=85
4.FM	F:maj	8g] 8b-]	_	8d]	_	1r	.	.	206.598	newline
.	.	8gq 8b-q	_	8dq	_	.	.	.	.	.
.	.	16a 16cc	_	16f	_	.	.	.	.	.
.	.	16g 16b-	_	16d	_	.	.	.	.	.
.	.	8f 8a	_	8c	_	.	.	.	.	.
8%5B-M	B-:maj/5	[8f [8a	on	[8c	on	.	.	.	207.809	.
.	.	8f] 8a]	_	8c]	_	.	.	.	.	.
.	.	8r	.	8r	.	.	.	.	.	.
.	.	4r	.	4r	.	.	.	.	.	.
=86	=86	=86	=86	=86	=86	=86	=86	=86	=86	=86
4.CM	C:sus4/4	2r	.	2r	.	1r	.	.	209.02	.
8%5FM	F:maj	.	.	.	.	.	.	.	210.232	.
.	.	8r	.	8r	.	.	.	.	.	.
.	.	16c	Can	16c	Can	.	.	.	.	.
.	.	16c	you	16c	you	.	.	.	.	.
.	.	8f	hold	8c	hold	.	.	.	.	.
.	.	8cq	_	8Aq	_	.	.	.	.	.
.	.	8d	on	8B-	on	.	.	.	.	.
=87	=87	=87	=87	=87	=87	=87	=87	=87	=87	=87
4.FM	F:maj	8.c	_	8.A	_	1r	.	.	211.443	.
.	.	16r	.	16r	.	.	.	.	.	.
.	.	4r	.	4r	.	.	.	.	.	.
8%5B-M	B-:maj/5	.	.	.	.	.	.	.	212.654	.
.	.	2r	.	2r	.	.	.	.	.	.
=88	=88	=88	=88	=88	=88	=88	=88	=88	=88	=88
4.CM	C:sus4/4	8r	.	8r	.	1r	.	.	213.866	.
.	.	16g	Mmm,	16B- 16e	Mmm,	.	.	.	.	.
.	.	[16a	_	[16c [16f	_	.	.	.	.	.
.	.	4a_	_	4c_ 4f]	_	.	.	.	.	.
8%5FM	F:maj	.	.	.	.	.	.	.	215.077	.
.	.	8a]	_	8c] 8f	_	.	.	.	.	.
.	.	16f	can	16B- 16f	can	.	.	.	.	.
.	.	16f	you	16B- 16f	you	.	.	.	.	.
.	.	8dd	hold	8f 8b-	hold	.	.	.	.	.
.	.	8cc	on,	8f 8a	on,	.	.	.	.	.
=89	=89	=89	=89	=89	=89	=89	=89	=89	=89	=89
.	.	8aq	_	8cq 8fq	_	.	.	.	.	.
4.FM	F:maj	8b-	ba-	8d 8g	ba-	1r	.	.	215.985	.
.	.	[8a	-by	[8c [8f	-by	.	.	.	.	.
.	.	8a]	_	8c] 8f]	_	.	.	.	.	.
8%5B-M	B-:maj/5	8r	.	8r	.	.	.	.	216.288	.
.	.	2r	.	2r	.	.	.	.	.	.
1r;	1r	r;	.	r;	.	r;	.	.	218.105	.
1r;	1r	r;	.	r;	.	r;	.	.	221.362	.
*-	*-	*-	*-	*-	*-	*-	*-	*-	*-	*-
!!!BillboardChartDate: 1990/04/14, 1990/03/31, 1990/05/26
!!!BillboardPeak: 1, 1, 1
!!!BillboardWeeksOnChart: 25, 25, 25
!!!COC: Wilson Phillips
!!!ENC: Nathaniel Condit-Schultz
!!!EST: Awating manual error checking and editing.
!!!OTL: Hold On
!!!RDF**chordsym: original McGill chord annotation + (implied pitch class set, with bass pitch in first position)
!!!RDF**harmony: **recip + pitch class of root + harmonic quality
!!!RDF**leadinstrument: original McGill primary instrumentation annotation
!!!RDF**phrase: newline = linebreak in original McGill transcription
!!!RDF**timestamp: McGill audio timestamp in seconds
!!!RDT: 2017/01/12/
!!!SampleActualRank: 25, 43,  4
!!!SampleID#: 385, 628, 911
!!!SampleTargetRank: 23, 44,  4
!!!MBID: 7ea78451-85a3-47bc-a713-b24fb107f85a